assets/img/svg/attach.svg

<svg width="28" height="28" viewBox="0 0 28 28" fill="none" xmlns="http://www.w3.org/2000/svg">
<path d="M10.2695 19.2826C10.5136 19.5267 10.8972 19.4918 11.1761 19.2826L15.4302 15.0286C15.744 14.7148 16.2322 14.6799 16.6157 15.0286C16.9993 15.3773 16.9644 15.9701 16.6157 16.3187L11.3854 21.4445C10.2347 22.5952 8.31687 22.5952 7.16618 21.4445L7.13131 21.4097C5.98063 20.259 5.98063 18.3412 7.13131 17.1905L16.3368 7.985C17.4875 6.83431 19.4053 6.83431 20.556 7.985L20.5908 8.01987C21.7415 9.17055 21.7415 11.0884 20.5908 12.239L20.556 12.2739C20.3468 12.4831 20.3119 12.797 20.4862 13.041C20.7303 13.4943 20.9395 14.0174 21.079 14.5404C21.1488 14.8891 21.5323 14.9588 21.8113 14.7496C22.16 14.4009 22.4389 14.0871 22.4389 14.0871C24.6008 11.9252 24.6008 8.40343 22.4389 6.24154H22.3692C20.2073 4.07964 16.6855 4.07964 14.5236 6.24154L5.24837 15.3773C3.08648 17.5392 3.08648 21.061 5.24837 23.2229L5.31811 23.2926C7.48 25.4545 10.9669 25.4545 13.1288 23.2926L18.3941 18.0622C19.754 16.7023 19.7191 14.5055 18.3243 13.1456C16.9644 11.8206 14.7677 11.9252 13.4426 13.2851L9.29321 17.4694C9.04912 17.7135 9.04912 18.1319 9.29321 18.4109L10.2695 19.2826Z" fill="#1C62AE"/>
</svg>

<svg width="28" height="28" fill="none" xmlns="http://www.w3.org/2000/svg"><path d="M10.27 19.283c.244.244.627.209.906 0l4.254-4.254c.314-.314.802-.35 1.186 0 .383.348.348.941 0 1.29l-5.23 5.126c-1.151 1.15-3.07 1.15-4.22 0l-.035-.035c-1.15-1.151-1.15-3.069 0-4.22l9.206-9.205c1.15-1.15 3.068-1.15 4.219 0l.035.035c1.15 1.15 1.15 3.068 0 4.219l-.035.035a.586.586 0 00-.07.767c.244.453.453.976.593 1.5.07.348.453.418.732.209.349-.35.628-.663.628-.663a5.556 5.556 0 000-7.845h-.07a5.556 5.556 0 00-7.845 0l-9.276 9.135a5.556 5.556 0 000 7.846l.07.07a5.514 5.514 0 007.81 0l5.266-5.23c1.36-1.36 1.325-3.557-.07-4.917-1.36-1.325-3.556-1.22-4.881.14l-4.15 4.183c-.244.244-.244.663 0 .942l.977.872z" fill="#1C62AE"/></svg>
